vectors/asana/asana.svg

<svg version="1.1" xmlns="http://www.w3.org/2000/svg" xmlns:xlink="http://www.w3.org/1999/xlink" viewBox="0 0 256 169">
    <defs>
        <radialGradient cx="50%" cy="54.6521962%" fx="50%" fy="54.6521962%" id="radialGradient-1" r="66.2633343%">
            <stop offset="0%" stop-color="#FFB900" />
            <stop offset="60%" stop-color="#F95D8F" />
            <stop offset="99.91%" stop-color="#F95353" />
        </radialGradient>
    </defs>
	<g>
		<path d="M24.0405804,159.63112 C15.6044357,159.63112 8.76563297,152.642018 8.76563297,144.018639 C8.76563297,135.396723 15.6044357,128.406524 24.0405804,128.406524 C32.4770907,128.406524 39.3144307,135.396723 39.3144307,144.018639 C39.3144307,152.642018 32.4770907,159.63112 24.0405804,159.63112 L24.0405804,159.63112 Z M39.3634334,161.611707 C39.3634334,163.04083 41.8128372,167.057224 44.8148014,167.057224 L46.7591848,167.057224 C47.5128756,167.057224 48.1297977,166.43957 48.1297977,165.686245 L48.1297977,122.962469 L48.1217525,122.962469 C48.0826235,122.243154 47.4869115,121.666458 46.7591848,121.666458 L40.7347777,121.666458 C40.0063196,121.666458 39.411339,122.243154 39.3703815,122.962469 L39.3634334,122.962469 L39.3634334,126.434348 C35.6721401,121.887701 29.8528862,120.001463 24.0168104,120.001463 C10.7520709,120.001463 0,130.753534 0,144.018639 C0,157.283744 10.7520709,168.037643 24.0168104,168.037643 C29.8528862,168.037643 36.2126327,165.773645 39.362702,161.60549 L39.3634334,161.611707 Z M62.5226965,155.492951 C66.5442094,158.27806 70.9339741,159.63112 75.1518635,159.63112 C79.1711823,159.63112 83.3254414,157.547408 83.3254414,153.921939 C83.3254414,149.080545 74.2723747,148.326854 68.5847698,146.394173 C62.8957021,144.461126 57.9954317,140.464114 57.9954317,133.992466 C57.9954317,124.090263 66.8192097,120 75.0542238,120 C80.2726461,120 85.6563611,121.720946 89.1468895,124.186074 C90.34965,125.096281 89.6168035,126.142526 89.6168035,126.142526 L86.2849854,130.901273 C85.9105169,131.437012 85.1341532,131.865237 84.3161006,131.319625 C82.0714842,129.836013 79.5712492,128.406158 75.0542238,128.406158 C69.4627959,128.406158 67.0031527,130.727204 67.0031527,133.602639 C67.0031527,137.05221 70.9368996,138.136852 75.5446165,139.312916 C83.5748433,141.476349 92.3335281,144.078612 92.3335281,153.921939 C92.3335281,162.646615 84.172018,168.039106 75.1518635,168.039106 C68.3170834,168.039106 62.497098,166.089969 57.6162093,162.508383 C56.5999517,161.491028 57.3097595,160.546081 57.3097595,160.546081 L60.6254873,155.8122 C61.299823,154.926129 62.1504222,155.235504 62.5226965,155.492951 Z M137.512559,161.611707 C137.512559,163.04083 139.961962,167.057224 142.963927,167.057224 L144.907579,167.057224 C145.662001,167.057224 146.279289,166.43957 146.279289,165.686245 L146.279289,122.962469 L146.271243,122.962469 C146.231017,122.243154 145.636037,121.666458 144.907579,121.666458 L138.883537,121.666458 C138.154713,121.666458 137.559733,122.243154 137.519872,122.962469 L137.512559,122.962469 L137.512559,126.434348 C133.821631,121.887701 128.001646,120.001463 122.167033,120.001463 C108.901927,120.001463 98.1483937,130.753534 98.1483937,144.018639 C98.1483937,157.283744 108.901927,168.037643 122.167033,168.037643 C128.001646,168.037643 134.361758,165.773645 137.511827,161.60549 L137.512559,161.611707 Z M122.189705,159.63112 C113.753195,159.63112 106.914758,152.642018 106.914758,144.018639 C106.914758,135.396723 113.753195,128.406524 122.189705,128.406524 C130.625484,128.406524 137.463922,135.396723 137.463922,144.018639 C137.463922,152.642018 130.625484,159.63112 122.189705,159.63112 Z M200.253207,163.079959 L200.250647,140.973157 L200.251379,140.973157 C200.251379,128.510746 192.389005,120.103856 179.851261,120.103856 C173.86708,120.103856 168.970466,123.564398 167.237818,126.536741 L167.237818,126.495418 L167.227579,126.529427 C167.223922,123.520881 164.784026,121.769217 161.776211,121.769217 L159.842067,121.769217 C159.087279,121.769217 158.470723,122.386871 158.470723,123.140927 L158.470723,161.718489 L158.470723,161.725071 L158.470723,165.867262 L158.478768,165.867262 C158.517531,166.586578 159.113974,167.164006 159.842067,167.164006 L165.866108,167.164006 C165.958263,167.164006 166.048954,167.153035 166.13672,167.136579 C166.176946,167.128168 166.21315,167.112443 166.251913,167.101107 C166.297625,167.087942 166.344067,167.076971 166.386122,167.059052 C166.44061,167.037111 166.488881,167.006758 166.538981,166.978966 C166.563117,166.964338 166.589081,166.953733 166.612851,166.939105 C166.671727,166.899976 166.727678,166.853168 166.781069,166.805262 C166.789846,166.79612 166.800451,166.790269 166.808862,166.781858 C166.869201,166.724444 166.923323,166.661545 166.97196,166.594258 L166.972692,166.593526 C167.123357,166.386179 167.21478,166.137143 167.229773,165.867262 L167.237818,165.867262 L167.237818,140.630138 C167.237818,133.936881 172.663953,128.510746 179.357577,128.510746 C186.0512,128.510746 191.477701,133.936881 191.477701,140.630138 L191.482455,161.725803 L191.484283,161.718489 C191.484283,161.736773 191.487574,161.756521 191.487574,161.775902 L191.487574,165.867262 L191.49562,165.867262 C191.53548,166.586578 192.130461,167.164006 192.859284,167.164006 L198.883326,167.164006 C198.976211,167.164006 199.06544,167.153035 199.153206,167.136579 C199.189044,167.128534 199.221956,167.114272 199.255966,167.105861 C199.306431,167.091233 199.356897,167.078434 199.404071,167.059052 C199.452708,167.038208 199.498054,167.010415 199.544131,166.984451 C199.572655,166.968726 199.602642,166.956658 199.629703,166.939105 C199.686385,166.901439 199.73685,166.857556 199.78695,166.814404 C199.799749,166.803068 199.814011,166.793194 199.826079,166.781492 C199.883493,166.726638 199.933227,166.66703 199.980401,166.604863 C199.983327,166.599377 199.987349,166.595721 199.991372,166.591332 C200.139843,166.386179 200.230169,166.138971 200.246259,165.870919 C200.246259,165.869457 200.246991,165.867262 200.246991,165.867262 L200.253939,165.867262 L200.253939,163.081056 L200.253207,163.079959 Z M247.234367,161.611707 C247.234367,163.04083 249.680845,167.057224 252.683175,167.057224 L254.628656,167.057224 C255.381981,167.057224 256,166.43957 256,165.686245 L256,122.962469 L255.992686,122.962469 C255.95246,122.243154 255.356382,121.666458 254.628656,121.666458 L248.605711,121.666458 C247.874328,121.666458 247.281907,122.243154 247.241681,122.962469 L247.234367,122.962469 L247.234367,126.434348 C243.54088,121.887701 237.722723,120.001463 231.886281,120.001463 C218.622639,120.001463 207.869105,130.753534 207.869105,144.018639 C207.869105,157.283744 218.622639,168.037643 231.886281,168.037643 C237.722723,168.037643 244.082104,165.773645 247.23071,161.60549 L247.234367,161.611707 Z M231.91188,159.63112 C223.475369,159.63112 216.636932,152.642018 216.636932,144.018639 C216.636932,135.396723 223.475369,128.406524 231.91188,128.406524 C240.344733,128.406524 247.18317,135.396723 247.18317,144.018639 C247.18317,152.642018 240.344733,159.63112 231.91188,159.63112 Z" fill="#283343" />
		<path d="M155.732542,47.3578088 C144.107001,47.3578088 134.684302,56.780873 134.684302,68.4053181 C134.684302,80.0304936 144.107001,89.4542882 155.732542,89.4542882 C167.356622,89.4542882 176.780051,80.0304936 176.780051,68.4053181 C176.780051,56.780873 167.356622,47.3578088 155.732542,47.3578088 L155.732542,47.3578088 Z M101.047874,47.3592696 C89.4237946,47.3592696 80,56.780873 80,68.4064137 C80,80.0304936 89.4237946,89.4542882 101.047874,89.4542882 C112.672685,89.4542882 122.096845,80.0304936 122.096845,68.4064137 C122.096845,56.780873 112.672685,47.3592696 101.047874,47.3592696 L101.047874,47.3592696 Z M149.437352,21.0475093 C149.437352,32.6719544 140.014653,42.0972097 128.390573,42.0972097 C116.765398,42.0972097 107.342334,32.6719544 107.342334,21.0475093 C107.342334,9.42379458 116.765398,0 128.390573,0 C140.014653,0 149.437352,9.42379458 149.437352,21.0475093 L149.437352,21.0475093 Z" fill="url(#radialGradient-1)" />
	</g>
</svg>

<svg xmlns="http://www.w3.org/2000/svg" viewBox="0 0 256 169"><defs><radialGradient cx="50%" cy="54.652%" fx="50%" fy="54.652%" id="a" r="66.263%"><stop offset="0%" stop-color="#FFB900"/><stop offset="60%" stop-color="#F95D8F"/><stop offset="99.91%" stop-color="#F95353"/></radialGradient></defs><path d="M24.04 159.631c-8.436 0-15.274-6.989-15.274-15.612 0-8.622 6.838-15.612 15.275-15.612 8.436 0 15.273 6.99 15.273 15.612 0 8.623-6.837 15.612-15.273 15.612zm15.323 1.98c0 1.43 2.45 5.446 5.452 5.446h1.944c.754 0 1.37-.617 1.37-1.37v-42.725h-.007a1.37 1.37 0 00-1.363-1.296h-6.024c-.729 0-1.324.577-1.365 1.296h-.007v3.472c-3.69-4.546-9.51-6.433-15.346-6.433C10.752 120.001 0 130.754 0 144.02s10.752 24.019 24.017 24.019c5.836 0 12.196-2.264 15.346-6.433v.007zm23.16-6.118c4.021 2.785 8.411 4.138 12.629 4.138 4.02 0 8.173-2.084 8.173-5.71 0-4.84-9.053-5.594-14.74-7.527-5.69-1.933-10.59-5.93-10.59-12.402 0-9.902 8.824-13.992 17.06-13.992 5.218 0 10.601 1.72 14.092 4.186 1.203.91.47 1.957.47 1.957l-3.332 4.758c-.374.536-1.15.964-1.969.419-2.245-1.484-4.745-2.914-9.262-2.914-5.591 0-8.05 2.321-8.05 5.197 0 3.45 3.933 4.534 8.54 5.71 8.03 2.163 16.79 4.766 16.79 14.609 0 8.725-8.162 14.117-17.182 14.117-6.835 0-12.655-1.949-17.536-5.53-1.016-1.018-.306-1.963-.306-1.963l3.315-4.734c.675-.886 1.525-.576 1.898-.319zm74.99 6.119c0 1.429 2.449 5.445 5.45 5.445h1.945c.754 0 1.371-.617 1.371-1.37v-42.725h-.008a1.372 1.372 0 00-1.363-1.296h-6.024c-.73 0-1.324.577-1.364 1.296h-.007v3.472c-3.691-4.546-9.511-6.433-15.346-6.433-13.265 0-24.019 10.753-24.019 24.018s10.754 24.019 24.019 24.019c5.835 0 12.195-2.264 15.345-6.433v.007zm-15.323-1.98c-8.437 0-15.275-6.99-15.275-15.613 0-8.622 6.838-15.612 15.275-15.612 8.435 0 15.274 6.99 15.274 15.612 0 8.623-6.839 15.612-15.274 15.612zm78.063 3.448l-.002-22.107c0-12.462-7.862-20.87-20.4-20.87-5.984 0-10.88 3.461-12.613 6.434v-.042l-.01.034c-.004-3.008-2.444-4.76-5.452-4.76h-1.934c-.755 0-1.371.618-1.371 1.372v42.726h.008a1.37 1.37 0 001.363 1.297h6.024c.092 0 .183-.011.27-.027.04-.009.077-.025.116-.036.046-.013.092-.024.134-.042.055-.022.103-.052.153-.08.024-.015.05-.025.074-.04a1.5 1.5 0 00.168-.134c.009-.009.02-.015.028-.023a1.358 1.358 0 00.42-.915h.009V140.63c0-6.693 5.426-12.12 12.12-12.12 6.693 0 12.12 5.427 12.12 12.12l.004 21.096.002-.008c0 .019.004.039.004.058v4.091h.008a1.37 1.37 0 001.363 1.297h6.024c.093 0 .182-.011.27-.027.036-.008.069-.023.103-.031.05-.015.1-.028.148-.047.049-.02.094-.049.14-.075.029-.015.059-.027.086-.045.056-.038.107-.081.157-.125.013-.01.027-.02.04-.033.056-.054.106-.114.153-.176a1.362 1.362 0 00.266-.734l.001-.004h.007v-2.787zm46.981-1.468c0 1.429 2.447 5.445 5.45 5.445h1.945c.753 0 1.371-.617 1.371-1.37v-42.725h-.007a1.373 1.373 0 00-1.364-1.296h-6.023a1.37 1.37 0 00-1.364 1.296h-.008v3.472c-3.693-4.546-9.511-6.433-15.348-6.433-13.263 0-24.017 10.753-24.017 24.018s10.754 24.019 24.017 24.019c5.837 0 12.196-2.264 15.345-6.433l.003.007zm-15.322-1.98c-8.437 0-15.275-6.99-15.275-15.613 0-8.622 6.838-15.612 15.275-15.612 8.433 0 15.271 6.99 15.271 15.612 0 8.623-6.838 15.612-15.271 15.612z" fill="#283343"/><path d="M155.733 47.358c-11.626 0-21.049 9.423-21.049 21.047 0 11.625 9.423 21.05 21.049 21.05 11.624 0 21.047-9.425 21.047-21.05 0-11.624-9.423-21.047-21.047-21.047zm-54.685.001C89.424 47.36 80 56.781 80 68.406c0 11.624 9.424 21.048 21.048 21.048 11.625 0 21.049-9.424 21.049-21.048 0-11.625-9.424-21.047-21.05-21.047zm48.39-26.311c0 11.624-9.423 21.05-21.047 21.05-11.626 0-21.049-9.426-21.049-21.05S116.765 0 128.391 0c11.624 0 21.046 9.424 21.046 21.048z" fill="url(#a)"/></svg>
